source/images/icons/letter.svg

<?xml version="1.0" encoding="UTF-8"?>
<svg width="64px" height="85px" viewBox="0 0 64 85" version="1.1" xmlns="http://www.w3.org/2000/svg" xmlns:xlink="http://www.w3.org/1999/xlink">
    <!-- Generator: Sketch 47.1 (45422) - http://www.bohemiancoding.com/sketch -->
    <title>002-menu</title>
    <desc>Created with Sketch.</desc>
    <defs></defs>
    <g id="Welcome" stroke="none" stroke-width="1" fill="none" fill-rule="evenodd">
        <g id="IPhone-6---Home" transform="translate(-614.000000, -1192.000000)" fill-rule="nonzero" fill="#FFFFFF">
            <g id="Menu" transform="translate(91.000000, 1192.000000)">
                <g id="002-menu" transform="translate(523.000000, 0.000000)">
                    <path d="M56.8888333,0 L7.11116667,0 C3.191,0 0,3.17670898 0,7.08338867 L0,77.9167773 C0,81.823291 3.191,85 7.11116667,85 L56.889,85 C60.809,85 64,81.823291 64,77.9166113 L64,7.08338867 C64,3.17670898 60.809,0 56.8888333,0 Z M42.6666667,6 L53.3333333,6 L53.3333333,20.155293 L48.7951667,18.2294557 C48.2951667,18.0172812 47.7048333,18.0172812 47.2048333,18.2294557 L42.6666667,20.155293 L42.6666667,6 Z M59.4445,76.1192623 C59.4445,77.959893 57.9418658,79.4582227 56.0924457,79.4582227 L9.16290012,79.4582227 C7.31332289,79.4582227 5.81084584,77.959893 5.81084584,76.1192623 L5.81084584,9.33911684 C5.81084584,7.4984862 7.31348002,6.00015652 9.16290012,6.00015652 L39.33186,6.00015652 L39.33186,24.3646731 C39.33186,24.94347 39.6330783,25.4798511 40.1274092,25.7847446 C40.6184405,26.088073 41.2372184,26.1157764 41.757633,25.8581507 L47.7120743,22.8923251 L53.6666728,25.8579942 C53.9023678,25.9753814 54.1610038,26.034075 54.41634,26.034075 C54.7240006,26.034075 55.0285185,25.9509648 55.2968965,25.7845881 C55.7912275,25.4796945 56.0924457,24.9433135 56.0924457,24.3645165 L56.0924457,6 C57.9420229,6 59.4445,7.49832968 59.4445,9.33896032 L59.4445,76.1192623 L59.4445,76.1192623 Z" id="Shape"></path>
                    <path d="M32,20 C32,18.8945345 31.3290781,18 30.4999531,18 L15.5000469,18 C14.6709219,18 14,18.8945345 14,20 C14,21.1054655 14.6709219,22 15.5000469,22 L30.5000938,22 C31.3290781,22 32,21.1054655 32,20 Z" id="Shape"></path>
                    <path d="M48.1999494,35 L15.8000506,35 C14.8051037,35 14,35.8945345 14,37 C14,38.1054655 14.8051037,39 15.8000506,39 L48.1999494,39 C49.1948963,39 50,38.1054655 50,37 C50,35.8945345 49.1948963,35 48.1999494,35 Z" id="Shape"></path>
                    <path d="M48.1999494,50 L15.8000506,50 C14.8051037,50 14,50.8945345 14,52 C14,53.1054655 14.8051037,54 15.8000506,54 L48.1999494,54 C49.1948963,54 50,53.1054655 50,52 C50,50.8945345 49.1948963,50 48.1999494,50 Z" id="Shape"></path>
                    <path d="M48.1999494,64 L15.8000506,64 C14.8051037,64 14,64.8945345 14,66 C14,67.1054655 14.8051037,68 15.8000506,68 L48.1999494,68 C49.1948963,68 50,67.1054655 50,66 C50,64.8945345 49.1948963,64 48.1999494,64 Z" id="Shape"></path>
                </g>
            </g>
        </g>
    </g>
</svg>

<svg width="64" height="85" viewBox="0 0 64 85" xmlns="http://www.w3.org/2000/svg"><g id="letter" fill-rule="nonzero" fill="#FFF"><path d="M56.89 0H7.11C3.19 0 0 3.177 0 7.083v70.834C0 81.823 3.19 85 7.11 85h49.78c3.92 0 7.11-3.177 7.11-7.083V7.083C64 3.177 60.81 0 56.89 0zM42.666 6h10.666v14.155l-4.538-1.926c-.5-.213-1.09-.213-1.59 0l-4.538 1.925V6zm16.777 70.12c0 1.84-1.502 3.338-3.352 3.338H9.162c-1.85 0-3.35-1.498-3.35-3.34V9.34C5.81 7.5 7.31 6 9.16 6h30.17v18.365c0 .578.3 1.115.795 1.42.49.303 1.11.33 1.63.073l5.955-2.966 5.955 2.966c.235.117.494.176.75.176.307 0 .612-.083.88-.25.494-.304.795-.84.795-1.42V6c1.85 0 3.352 1.498 3.352 3.34v66.78z"/><path d="M32 20c0-1.105-.67-2-1.5-2h-15c-.83 0-1.5.895-1.5 2s.67 2 1.5 2h15c.83 0 1.5-.895 1.5-2zM48.2 35H15.8c-.995 0-1.8.895-1.8 2s.805 2 1.8 2h32.4c.995 0 1.8-.895 1.8-2s-.805-2-1.8-2zM48.2 50H15.8c-.995 0-1.8.895-1.8 2s.805 2 1.8 2h32.4c.995 0 1.8-.895 1.8-2s-.805-2-1.8-2zM48.2 64H15.8c-.995 0-1.8.895-1.8 2s.805 2 1.8 2h32.4c.995 0 1.8-.895 1.8-2s-.805-2-1.8-2z"/></g></svg>
